X:3019
T:Jigs from Charlie Harris
O:england
R:Jig
S:Tara Diamond
M:6/8
L:1/8
K:EDor
~E3 FEE|BEE GFE|DED FEF|ABc dAF|
~E3 FEE|BEE GFE|dcB AFA|BEE E2B:|
~e3 B2B|def afe|fdd Add|faf fed|
ege ~B3|def afe|fdB AFA|BEE E3:|


